X:16
T: Epstein Bulgar (v.1)
O:klezmer
R: bulgar, freilach
Z: John Chambers <jc@trillian.mit.edu>
S: Ben Pasamanick
M: 4/4
L: 1/8
K: Cm
(5G/A/G/^F/G/ \
| "Cm"A2 G2 F2 (3{F}EDE | "G7"D4 zG,=B,D \
| F3 ^F (3GFE (3{F}EDC | "Cm"DE3- EA/G/ ^FG |
| "Cm"e>e "G"d>d "Cm"c>c "C7"B>B | "Fm"A>A "G"G>G "Fm"F3 ^F \
| "G7"^FG2=F (3GFE E/D/C/=B,/ | "Cm"C4 z :|
|: (5G/A/G/^F/G/ \
| "G"=B4 z(5G/A/G/^F/G/ | "Cm"c4 zG,=B,D \
| "G7"F3 ^F (3GFE (3{F}EDC | "Cm"DE3- EGAG |
| "G"=B4 z(5G/A/G/^F/G/ | "Cm"c3G GA/G/ FE \
| "G"DB, =B,^F (3GFE {F}E/D/C/=B,/ | "Cm"C4 z :|
K:C
|: GAG \
| "C"cz zE Gz zF | E/F/G/F/ ED CG _GF \
| E>G AG cE GC | EG, CD EF/E/ DC | "G7"D>E FG EF/E/ DC |
| "C"^FG3- G3G | EG e_e d_d cB \
| _BA _AG F{GF}E DC | "G7"D>E FA G{AG}F E{FE}D | "C"C4 z :|





